svg/color/jack.svg

<?xml version="1.0" encoding="UTF-8" ?>
<!DOCTYPE svg PUBLIC "-//W3C//DTD SVG 1.1//EN" "http://www.w3.org/Graphics/SVG/1.1/DTD/svg11.dtd">
<svg width="250pt" height="250pt" viewBox="0 0 250 250" version="1.1" xmlns="http://www.w3.org/2000/svg">
<g id="#ffffffff">
<path fill="#ffffff" opacity="1.00" d=" M 0.00 0.00 L 115.71 0.00 C 109.70 1.04 103.60 1.57 97.67 3.04 C 71.12 9.25 46.22 23.69 28.91 44.94 C 12.06 65.06 2.40 90.58 0.00 116.60 L 0.00 0.00 Z" />
<path fill="#ffffff" opacity="1.00" d=" M 135.29 0.00 L 250.00 0.00 L 250.00 116.64 C 247.67 90.60 237.90 65.08 221.09 44.94 C 202.30 22.01 174.80 6.84 145.73 1.72 C 142.24 1.22 138.75 0.70 135.29 0.00 Z" />
<path fill="#ffffff" opacity="1.00" d=" M 0.00 127.48 C 0.71 167.72 21.98 207.32 55.95 229.16 C 73.79 241.53 95.23 247.65 116.62 250.00 L 0.00 250.00 L 0.00 127.48 Z" />
<path fill="#ffffff" opacity="1.00" d=" M 237.84 178.57 C 244.70 164.77 248.02 149.54 250.00 134.36 L 250.00 250.00 L 134.29 250.00 C 140.62 248.82 147.04 248.14 153.31 246.62 C 161.68 244.76 169.73 241.72 177.65 238.47 C 203.87 226.32 225.65 204.80 237.84 178.57 Z" />
</g>
<g id="#250030ff">
<path fill="#250030" opacity="1.00" d=" M 115.71 0.00 L 135.29 0.00 C 138.75 0.70 142.24 1.22 145.73 1.72 C 174.80 6.84 202.30 22.01 221.09 44.94 C 237.90 65.08 247.67 90.60 250.00 116.64 L 250.00 134.36 C 248.02 149.54 244.70 164.77 237.84 178.57 C 225.65 204.80 203.87 226.32 177.65 238.47 C 169.73 241.72 161.68 244.76 153.31 246.62 C 147.04 248.14 140.62 248.82 134.29 250.00 L 116.62 250.00 C 95.23 247.65 73.79 241.53 55.95 229.16 C 21.98 207.32 0.71 167.72 0.00 127.48 L 0.00 116.60 C 2.40 90.58 12.06 65.06 28.91 44.94 C 46.22 23.69 71.12 9.25 97.67 3.04 C 103.60 1.57 109.70 1.04 115.71 0.00 M 114.36 59.29 C 114.35 60.78 114.36 62.27 114.38 63.77 C 120.29 65.80 126.36 67.37 132.37 69.05 C 132.57 65.71 131.75 62.46 130.91 59.26 C 125.39 59.16 119.87 59.12 114.36 59.29 M 133.81 59.19 C 134.02 62.73 134.54 66.26 135.79 69.60 C 138.41 69.02 141.17 68.82 143.66 67.75 C 146.74 65.56 149.06 62.44 151.11 59.30 C 145.34 59.09 139.57 59.22 133.81 59.19 M 146.51 68.90 C 149.05 71.75 151.64 74.58 154.64 76.97 C 154.58 71.27 154.68 65.56 154.56 59.86 C 151.23 62.23 148.99 65.72 146.51 68.90 M 114.76 66.67 C 114.39 71.81 114.40 76.99 114.77 82.14 C 120.14 78.77 125.68 75.47 130.28 71.08 C 125.20 69.31 119.98 67.98 114.76 66.67 M 128.70 75.88 C 132.13 78.76 134.63 83.93 139.63 83.92 C 140.77 79.60 141.98 75.30 142.85 70.91 C 137.81 71.24 132.16 71.68 128.70 75.88 M 145.28 71.89 C 144.13 75.81 143.15 79.77 142.19 83.74 C 146.42 83.83 150.64 83.84 154.86 83.67 C 154.59 82.20 154.88 80.43 153.62 79.35 C 151.02 76.68 148.61 73.67 145.28 71.89 M 117.78 83.75 C 122.87 83.85 127.97 83.81 133.07 83.76 C 131.01 81.55 129.11 78.41 126.06 77.70 C 122.97 79.21 120.17 81.28 117.78 83.75 M 115.94 93.31 C 118.43 98.69 121.75 103.61 124.45 108.88 C 130.31 106.59 136.00 103.71 141.21 100.18 C 136.74 98.13 132.16 96.34 127.67 94.34 C 124.00 92.63 119.85 93.37 115.94 93.31 M 134.23 93.70 C 136.83 96.36 140.62 97.40 144.04 98.63 C 147.09 98.13 150.03 96.20 151.83 93.68 C 145.98 93.27 140.08 93.23 134.23 93.70 M 146.81 100.84 C 149.23 103.76 151.45 106.93 154.58 109.15 C 154.67 104.78 154.62 100.41 154.61 96.04 C 151.80 97.27 149.07 98.74 146.81 100.84 M 114.49 96.84 C 114.36 102.56 114.47 108.28 114.43 114.00 C 117.31 113.15 119.94 111.69 122.42 110.04 C 119.79 105.64 117.95 100.68 114.49 96.84 M 142.64 102.61 C 137.07 105.36 131.52 108.18 126.04 111.11 C 128.62 115.86 131.03 120.76 134.13 125.21 C 140.99 125.14 147.79 122.73 154.61 121.64 C 154.61 118.91 154.85 116.15 154.43 113.45 C 152.29 110.36 149.53 107.77 147.19 104.84 C 146.01 103.63 144.59 101.20 142.64 102.61 M 114.87 116.81 C 113.75 121.81 112.19 126.82 112.42 132.01 C 112.67 137.78 111.23 143.50 111.79 149.28 C 114.96 146.97 117.21 143.71 119.85 140.88 C 123.74 136.16 128.36 132.00 131.83 126.97 C 129.86 121.86 126.56 117.38 123.94 112.58 C 120.80 113.70 117.62 114.88 114.87 116.81 M 135.99 128.01 C 139.63 133.62 143.90 138.79 147.70 144.29 C 148.50 145.16 149.04 146.70 150.47 146.58 C 154.03 139.81 155.09 132.04 154.39 124.48 C 148.17 125.11 142.05 126.51 135.99 128.01 M 124.80 138.80 C 120.51 143.85 115.69 148.47 111.86 153.90 C 116.50 159.90 121.03 166.01 126.01 171.75 C 130.36 168.21 134.12 164.04 138.18 160.18 C 141.68 156.59 145.74 153.47 148.42 149.16 C 143.67 142.46 138.67 135.93 133.83 129.29 C 130.32 131.94 127.76 135.58 124.80 138.80 M 90.33 151.32 C 88.36 153.14 86.50 155.07 84.88 157.20 C 92.26 156.11 99.58 154.63 106.85 153.01 C 109.25 152.93 109.33 150.22 109.43 148.41 C 109.64 143.17 109.80 137.93 109.84 132.69 C 103.08 138.62 96.86 145.14 90.33 151.32 M 81.07 160.58 C 81.36 161.70 81.56 162.87 82.08 163.93 C 86.96 172.80 92.04 181.58 96.48 190.68 C 97.81 190.73 99.15 190.75 100.48 190.75 C 102.76 178.97 106.09 167.41 108.18 155.58 C 99.04 156.53 90.17 159.26 81.07 160.58 M 108.93 164.05 C 107.19 172.76 104.56 181.30 103.18 190.09 C 108.51 189.53 112.29 185.44 115.85 181.85 C 118.44 179.13 121.42 176.79 123.82 173.90 C 123.24 171.84 121.62 170.31 120.40 168.61 C 117.20 164.78 114.50 160.52 110.87 157.06 C 110.04 159.33 109.40 161.67 108.93 164.05 M 93.12 190.03 C 92.20 186.86 90.54 183.99 88.89 181.16 C 85.82 175.88 83.36 170.25 79.87 165.23 C 75.52 175.15 82.62 187.89 93.12 190.03 Z" />
</g>
<g id="#fd3082ff">
<path fill="#fd3082" opacity="1.00" d=" M 114.36 59.29 C 119.87 59.12 125.39 59.16 130.91 59.26 C 131.75 62.46 132.57 65.71 132.37 69.05 C 126.36 67.37 120.29 65.80 114.38 63.77 C 114.36 62.27 114.35 60.78 114.36 59.29 Z" />
<path fill="#fd3082" opacity="1.00" d=" M 133.81 59.19 C 139.57 59.22 145.34 59.09 151.11 59.30 C 149.06 62.44 146.74 65.56 143.66 67.75 C 141.17 68.82 138.41 69.02 135.79 69.60 C 134.54 66.26 134.02 62.73 133.81 59.19 Z" />
<path fill="#fd3082" opacity="1.00" d=" M 146.51 68.90 C 148.99 65.72 151.23 62.23 154.56 59.86 C 154.68 65.56 154.58 71.27 154.64 76.97 C 151.64 74.58 149.05 71.75 146.51 68.90 Z" />
<path fill="#fd3082" opacity="1.00" d=" M 114.76 66.67 C 119.98 67.98 125.20 69.31 130.28 71.08 C 125.68 75.47 120.14 78.77 114.77 82.14 C 114.40 76.99 114.39 71.81 114.76 66.67 Z" />
<path fill="#fd3082" opacity="1.00" d=" M 128.70 75.88 C 132.16 71.68 137.81 71.24 142.85 70.91 C 141.98 75.30 140.77 79.60 139.63 83.92 C 134.63 83.93 132.13 78.76 128.70 75.88 Z" />
<path fill="#fd3082" opacity="1.00" d=" M 145.28 71.89 C 148.61 73.67 151.02 76.68 153.62 79.35 C 154.88 80.43 154.59 82.20 154.86 83.67 C 150.64 83.84 146.42 83.83 142.19 83.74 C 143.15 79.77 144.13 75.81 145.28 71.89 Z" />
<path fill="#fd3082" opacity="1.00" d=" M 117.78 83.75 C 120.17 81.28 122.97 79.21 126.06 77.70 C 129.11 78.41 131.01 81.55 133.07 83.76 C 127.97 83.81 122.87 83.85 117.78 83.75 Z" />
<path fill="#fd3082" opacity="1.00" d=" M 115.94 93.31 C 119.85 93.37 124.00 92.63 127.67 94.34 C 132.16 96.34 136.74 98.13 141.21 100.18 C 136.00 103.71 130.31 106.59 124.45 108.88 C 121.75 103.61 118.43 98.69 115.94 93.31 Z" />
<path fill="#fd3082" opacity="1.00" d=" M 134.23 93.70 C 140.08 93.23 145.98 93.27 151.83 93.68 C 150.03 96.20 147.09 98.13 144.04 98.63 C 140.62 97.40 136.83 96.36 134.23 93.70 Z" />
<path fill="#fd3082" opacity="1.00" d=" M 146.81 100.84 C 149.07 98.74 151.80 97.27 154.61 96.04 C 154.62 100.41 154.67 104.78 154.58 109.15 C 151.45 106.93 149.23 103.76 146.81 100.84 Z" />
<path fill="#fd3082" opacity="1.00" d=" M 114.49 96.84 C 117.95 100.68 119.79 105.64 122.42 110.04 C 119.94 111.69 117.31 113.15 114.43 114.00 C 114.47 108.28 114.36 102.56 114.49 96.84 Z" />
<path fill="#fd3082" opacity="1.00" d=" M 142.64 102.61 C 144.59 101.20 146.01 103.63 147.19 104.84 C 149.53 107.77 152.29 110.36 154.43 113.45 C 154.85 116.15 154.61 118.91 154.61 121.64 C 147.79 122.73 140.99 125.14 134.13 125.21 C 131.03 120.76 128.62 115.86 126.04 111.11 C 131.52 108.18 137.07 105.36 142.64 102.61 Z" />
<path fill="#fd3082" opacity="1.00" d=" M 114.87 116.81 C 117.62 114.88 120.80 113.70 123.94 112.58 C 126.56 117.38 129.86 121.86 131.83 126.97 C 128.36 132.00 123.74 136.16 119.85 140.88 C 117.21 143.71 114.96 146.97 111.79 149.28 C 111.23 143.50 112.67 137.78 112.42 132.01 C 112.19 126.82 113.75 121.81 114.87 116.81 Z" />
<path fill="#fd3082" opacity="1.00" d=" M 135.99 128.01 C 142.05 126.51 148.17 125.11 154.39 124.48 C 155.09 132.04 154.03 139.81 150.47 146.58 C 149.04 146.70 148.50 145.16 147.70 144.29 C 143.90 138.79 139.63 133.62 135.99 128.01 Z" />
<path fill="#fd3082" opacity="1.00" d=" M 124.80 138.80 C 127.76 135.58 130.32 131.94 133.83 129.29 C 138.67 135.93 143.67 142.46 148.42 149.16 C 145.74 153.47 141.68 156.59 138.18 160.18 C 134.12 164.04 130.36 168.21 126.01 171.75 C 121.03 166.01 116.50 159.90 111.86 153.90 C 115.69 148.47 120.51 143.85 124.80 138.80 Z" />
<path fill="#fd3082" opacity="1.00" d=" M 90.33 151.32 C 96.86 145.14 103.08 138.62 109.84 132.69 C 109.80 137.93 109.64 143.17 109.43 148.41 C 109.33 150.22 109.25 152.93 106.85 153.01 C 99.58 154.63 92.26 156.11 84.88 157.20 C 86.50 155.07 88.36 153.14 90.33 151.32 Z" />
<path fill="#fd3082" opacity="1.00" d=" M 81.07 160.58 C 90.17 159.26 99.04 156.53 108.18 155.58 C 106.09 167.41 102.76 178.97 100.48 190.75 C 99.15 190.75 97.81 190.73 96.48 190.68 C 92.04 181.58 86.96 172.80 82.08 163.93 C 81.56 162.87 81.36 161.70 81.07 160.58 Z" />
<path fill="#fd3082" opacity="1.00" d=" M 108.93 164.05 C 109.40 161.67 110.04 159.33 110.87 157.06 C 114.50 160.52 117.20 164.78 120.40 168.61 C 121.62 170.31 123.24 171.84 123.82 173.90 C 121.42 176.79 118.44 179.13 115.85 181.85 C 112.29 185.44 108.51 189.53 103.18 190.09 C 104.56 181.30 107.19 172.76 108.93 164.05 Z" />
<path fill="#fd3082" opacity="1.00" d=" M 93.12 190.03 C 82.62 187.89 75.52 175.15 79.87 165.23 C 83.36 170.25 85.82 175.88 88.89 181.16 C 90.54 183.99 92.20 186.86 93.12 190.03 Z" />
</g>
</svg>

<?xml version="1.0" encoding="utf-8"?>
<!-- Generator: Adobe Illustrator 26.0.3, SVG Export Plug-In . SVG Version: 6.00 Build 0)  -->
<svg version="1.1" id="Layer_1" xmlns="http://www.w3.org/2000/svg" xmlns:xlink="http://www.w3.org/1999/xlink" x="0px" y="0px"
	 viewBox="0 0 250 250" style="enable-background:new 0 0 250 250;" xml:space="preserve">
<style type="text/css">
	.st0{fill:#250030;}
	.st1{fill:#FD3082;}
</style>
<g id="_x23_250030ff">
	<path class="st0" d="M115.7,0h19.6c3.5,0.7,7,1.2,10.4,1.7c29.1,5.1,56.6,20.3,75.4,43.2c16.8,20.1,26.6,45.7,28.9,71.7v17.7
		c-2,15.2-5.3,30.4-12.2,44.2c-12.2,26.2-34,47.8-60.2,59.9c-7.9,3.2-16,6.3-24.3,8.1c-6.3,1.5-12.7,2.2-19,3.4h-17.7
		c-21.4-2.4-42.8-8.5-60.7-20.8C22,207.3,0.7,167.7,0,127.5v-10.9c2.4-26,12.1-51.5,28.9-71.7C46.2,23.7,71.1,9.2,97.7,3
		C103.6,1.6,109.7,1,115.7,0 M114.4,59.3c0,1.5,0,3,0,4.5c5.9,2,12,3.6,18,5.3c0.2-3.3-0.6-6.6-1.5-9.8
		C125.4,59.2,119.9,59.1,114.4,59.3 M133.8,59.2c0.2,3.5,0.7,7.1,2,10.4c2.6-0.6,5.4-0.8,7.9-1.8c3.1-2.2,5.4-5.3,7.4-8.5
		C145.3,59.1,139.6,59.2,133.8,59.2 M146.5,68.9c2.5,2.8,5.1,5.7,8.1,8.1c-0.1-5.7,0-11.4-0.1-17.1C151.2,62.2,149,65.7,146.5,68.9
		 M114.8,66.7c-0.4,5.1-0.4,10.3,0,15.5c5.4-3.4,10.9-6.7,15.5-11.1C125.2,69.3,120,68,114.8,66.7 M128.7,75.9
		c3.4,2.9,5.9,8.1,10.9,8c1.1-4.3,2.3-8.6,3.2-13C137.8,71.2,132.2,71.7,128.7,75.9 M145.3,71.9c-1.1,3.9-2.1,7.9-3.1,11.8
		c4.2,0.1,8.4,0.1,12.7-0.1c-0.3-1.5,0-3.2-1.2-4.3C151,76.7,148.6,73.7,145.3,71.9 M117.8,83.8c5.1,0.1,10.2,0.1,15.3,0
		c-2.1-2.2-4-5.3-7-6.1C123,79.2,120.2,81.3,117.8,83.8 M115.9,93.3c2.5,5.4,5.8,10.3,8.5,15.6c5.9-2.3,11.6-5.2,16.8-8.7
		c-4.5-2.1-9.1-3.8-13.5-5.8C124,92.6,119.8,93.4,115.9,93.3 M134.2,93.7c2.6,2.7,6.4,3.7,9.8,4.9c3.1-0.5,6-2.4,7.8-4.9
		C146,93.3,140.1,93.2,134.2,93.7 M146.8,100.8c2.4,2.9,4.6,6.1,7.8,8.3c0.1-4.4,0-8.7,0-13.1C151.8,97.3,149.1,98.7,146.8,100.8
		 M114.5,96.8c-0.1,5.7,0,11.4-0.1,17.2c2.9-0.8,5.5-2.3,8-4C119.8,105.6,117.9,100.7,114.5,96.8 M142.6,102.6
		c-5.6,2.8-11.1,5.6-16.6,8.5c2.6,4.8,5,9.7,8.1,14.1c6.9-0.1,13.7-2.5,20.5-3.6c0-2.7,0.2-5.5-0.2-8.2c-2.1-3.1-4.9-5.7-7.2-8.6
		C146,103.6,144.6,101.2,142.6,102.6 M114.9,116.8c-1.1,5-2.7,10-2.5,15.2c0.2,5.8-1.2,11.5-0.6,17.3c3.2-2.3,5.4-5.6,8.1-8.4
		c3.9-4.7,8.5-8.9,12-13.9c-2-5.1-5.3-9.6-7.9-14.4C120.8,113.7,117.6,114.9,114.9,116.8 M136,128c3.6,5.6,7.9,10.8,11.7,16.3
		c0.8,0.9,1.3,2.4,2.8,2.3c3.6-6.8,4.6-14.5,3.9-22.1C148.2,125.1,142.1,126.5,136,128 M124.8,138.8c-4.3,5.1-9.1,9.7-12.9,15.1
		c4.6,6,9.2,12.1,14.2,17.9c4.3-3.5,8.1-7.7,12.2-11.6c3.5-3.6,7.6-6.7,10.2-11c-4.8-6.7-9.8-13.2-14.6-19.9
		C130.3,131.9,127.8,135.6,124.8,138.8 M90.3,151.3c-2,1.8-3.8,3.8-5.5,5.9c7.4-1.1,14.7-2.6,22-4.2c2.4-0.1,2.5-2.8,2.6-4.6
		c0.2-5.2,0.4-10.5,0.4-15.7C103.1,138.6,96.9,145.1,90.3,151.3 M81.1,160.6c0.3,1.1,0.5,2.3,1,3.3c4.9,8.9,10,17.7,14.4,26.8
		c1.3,0.1,2.7,0.1,4,0.1c2.3-11.8,5.6-23.3,7.7-35.2C99,156.5,90.2,159.3,81.1,160.6 M108.9,164.1c-1.7,8.7-4.4,17.2-5.8,26
		c5.3-0.6,9.1-4.6,12.7-8.2c2.6-2.7,5.6-5.1,8-8c-0.6-2.1-2.2-3.6-3.4-5.3c-3.2-3.8-5.9-8.1-9.5-11.6
		C110,159.3,109.4,161.7,108.9,164.1 M93.1,190c-0.9-3.2-2.6-6-4.2-8.9c-3.1-5.3-5.5-10.9-9-15.9C75.5,175.1,82.6,187.9,93.1,190z"
		/>
</g>
<g id="_x23_fd3082ff">
	<path class="st1" d="M114.4,59.3c5.5-0.2,11-0.1,16.6,0c0.8,3.2,1.7,6.5,1.5,9.8c-6-1.7-12.1-3.2-18-5.3
		C114.4,62.3,114.3,60.8,114.4,59.3z"/>
	<path class="st1" d="M133.8,59.2c5.8,0,11.5-0.1,17.3,0.1c-2.1,3.1-4.4,6.3-7.4,8.5c-2.5,1.1-5.2,1.3-7.9,1.8
		C134.5,66.3,134,62.7,133.8,59.2z"/>
	<path class="st1" d="M146.5,68.9c2.5-3.2,4.7-6.7,8.1-9c0.1,5.7,0,11.4,0.1,17.1C151.6,74.6,149.1,71.8,146.5,68.9z"/>
	<path class="st1" d="M114.8,66.7c5.2,1.3,10.4,2.6,15.5,4.4c-4.6,4.4-10.1,7.7-15.5,11.1C114.4,77,114.4,71.8,114.8,66.7z"/>
	<path class="st1" d="M128.7,75.9c3.5-4.2,9.1-4.6,14.2-5c-0.9,4.4-2.1,8.7-3.2,13C134.6,83.9,132.1,78.8,128.7,75.9z"/>
	<path class="st1" d="M145.3,71.9c3.3,1.8,5.7,4.8,8.3,7.5c1.3,1.1,1,2.8,1.2,4.3c-4.2,0.2-8.4,0.2-12.7,0.1
		C143.1,79.8,144.1,75.8,145.3,71.9z"/>
	<path class="st1" d="M117.8,83.8c2.4-2.5,5.2-4.5,8.3-6.1c3.1,0.7,4.9,3.9,7,6.1C128,83.8,122.9,83.8,117.8,83.8z"/>
	<path class="st1" d="M115.9,93.3c3.9,0.1,8.1-0.7,11.7,1c4.5,2,9.1,3.8,13.5,5.8c-5.2,3.5-10.9,6.4-16.8,8.7
		C121.8,103.6,118.4,98.7,115.9,93.3z"/>
	<path class="st1" d="M134.2,93.7c5.9-0.5,11.8-0.4,17.6,0c-1.8,2.5-4.7,4.4-7.8,4.9C140.6,97.4,136.8,96.4,134.2,93.7z"/>
	<path class="st1" d="M146.8,100.8c2.3-2.1,5-3.6,7.8-4.8c0,4.4,0.1,8.7,0,13.1C151.4,106.9,149.2,103.8,146.8,100.8z"/>
	<path class="st1" d="M114.5,96.8c3.5,3.8,5.3,8.8,7.9,13.2c-2.5,1.7-5.1,3.1-8,4C114.5,108.3,114.4,102.6,114.5,96.8z"/>
	<path class="st1" d="M142.6,102.6c1.9-1.4,3.4,1,4.6,2.2c2.3,2.9,5.1,5.5,7.2,8.6c0.4,2.7,0.2,5.5,0.2,8.2
		c-6.8,1.1-13.6,3.5-20.5,3.6c-3.1-4.4-5.5-9.3-8.1-14.1C131.5,108.2,137.1,105.4,142.6,102.6z"/>
	<path class="st1" d="M114.9,116.8c2.8-1.9,5.9-3.1,9.1-4.2c2.6,4.8,5.9,9.3,7.9,14.4c-3.5,5-8.1,9.2-12,13.9
		c-2.6,2.8-4.9,6.1-8.1,8.4c-0.6-5.8,0.9-11.5,0.6-17.3C112.2,126.8,113.8,121.8,114.9,116.8z"/>
	<path class="st1" d="M136,128c6.1-1.5,12.2-2.9,18.4-3.5c0.7,7.6-0.4,15.3-3.9,22.1c-1.4,0.1-2-1.4-2.8-2.3
		C143.9,138.8,139.6,133.6,136,128z"/>
	<path class="st1" d="M124.8,138.8c3-3.2,5.5-6.9,9-9.5c4.8,6.6,9.8,13.2,14.6,19.9c-2.7,4.3-6.7,7.4-10.2,11
		c-4.1,3.9-7.8,8-12.2,11.6c-5-5.7-9.5-11.9-14.2-17.9C115.7,148.5,120.5,143.9,124.8,138.8z"/>
	<path class="st1" d="M90.3,151.3c6.5-6.2,12.8-12.7,19.5-18.6c0,5.2-0.2,10.5-0.4,15.7c-0.1,1.8-0.2,4.5-2.6,4.6
		c-7.3,1.6-14.6,3.1-22,4.2C86.5,155.1,88.4,153.1,90.3,151.3z"/>
	<path class="st1" d="M81.1,160.6c9.1-1.3,18-4.1,27.1-5c-2.1,11.8-5.4,23.4-7.7,35.2c-1.3,0-2.7,0-4-0.1
		c-4.4-9.1-9.5-17.9-14.4-26.8C81.6,162.9,81.4,161.7,81.1,160.6z"/>
	<path class="st1" d="M108.9,164.1c0.5-2.4,1.1-4.7,1.9-7c3.6,3.5,6.3,7.7,9.5,11.6c1.2,1.7,2.8,3.2,3.4,5.3c-2.4,2.9-5.4,5.2-8,8
		c-3.6,3.6-7.3,7.7-12.7,8.2C104.6,181.3,107.2,172.8,108.9,164.1z"/>
	<path class="st1" d="M93.1,190c-10.5-2.1-17.6-14.9-13.2-24.8c3.5,5,5.9,10.7,9,15.9C90.5,184,92.2,186.9,93.1,190z"/>
</g>
</svg>
